actions/22x22-dark/edit-select-lasso.svg

<svg viewBox="0 0 22 22" xmlns="http://www.w3.org/2000/svg"><path d="m11.083984 3c-4.780983 0-8.5253903 2.2669583-8.5253902 5.1601562 0 1.0673488.5121584 2.0473148 1.3945312 2.8613278-.2756201.178513-.5446623.415626-.7460938.751954-.4144808.691885-.4244571 1.551286-.0273437 2.552734.374036.943357.283344 1.29101.2265625 1.396484-.1329923.250679-.7178469.377793-1.2832031.5-.1382264.030056-.2792768.060443-.4199219.09375-.3760582.08882-.6096701.465104-.5214844.841797.0754179.321616.3645844.539063.6816406.539063.0531335 0 .1062694-.005405.1601563-.017578.1316442-.031365.2646318-.061731.3945313-.089844.8370904-.180971 1.7841066-.386605 2.2226562-1.208985.3364857-.630544.2849755-1.446816-.1601562-2.570312-.2270069-.572375-.2521469-1.013763-.0761719-1.3125.1968715-.335098.6390521-.483242.8789062-.533203 1.4157697.789151 3.2856347 1.281724 5.3769529 1.341797l-.416015-1.416016c-3.4840904-.228315-6.2871097-1.84197-6.2871098-3.7304688.0000397-2.0381452 3.2637121-3.7617187 7.1269528-3.7617187 3.863281 0 7.126954 1.7236131 7.126954 3.7617187 0 .4936261-.195609.9694452-.541016 1.40625l1.404297.4121094c.341521-.564127.537109-1.1744131.537109-1.8183594 0-2.8931979-3.74636-5.1601562-8.527344-5.1601562zm.47461 6.2480469c-.123436 0-.243737.0485432-.333985.1386719-.122762.1221277-.170262.3012107-.121093.4667968l2.58789 8.8066404c.053134.182914.212372.317351.402344.337891.017962.001864.035644.001953.052734.001953.17086 0 .329525-.092512.414063-.244141l2.144531-3.888671 3.886719-2.144532c.167529-.092071.263163-.275466.242187-.464844-.020381-.189813-.154381-.347981-.33789-.402343l-8.804688-2.589844c-.044212-.0134023-.088045-.0175781-.132812-.0175781z" fill="#f2f2f2"/></svg>

<svg xmlns="http://www.w3.org/2000/svg" viewBox="0 0 22 22">
  <defs id="defs3051">
    <style type="text/css" id="current-color-scheme">
      .ColorScheme-Text {
        color:#f2f2f2
      }
      </style>
  </defs>
 <path 
     style="fill:currentColor;fill-opacity:1;stroke:none"      
	 class="ColorScheme-Text"
        d="M 11.083984 3 C 6.303001 3 2.5585937 5.2669583 2.5585938 8.1601562 C 2.5585938 9.227505 3.0707522 10.207471 3.953125 11.021484 C 3.6775049 11.199997 3.4084627 11.43711 3.2070312 11.773438 C 2.7925504 12.465323 2.7825741 13.324724 3.1796875 14.326172 C 3.5537235 15.269529 3.4630315 15.617182 3.40625 15.722656 C 3.2732577 15.973335 2.6884031 16.100449 2.1230469 16.222656 C 1.9848205 16.252712 1.8437701 16.283099 1.703125 16.316406 C 1.3270668 16.405226 1.0934549 16.78151 1.1816406 17.158203 C 1.2570585 17.479819 1.546225 17.697266 1.8632812 17.697266 C 1.9164147 17.697266 1.9695506 17.691861 2.0234375 17.679688 C 2.1550817 17.648323 2.2880693 17.617957 2.4179688 17.589844 C 3.2550592 17.408873 4.2020754 17.203239 4.640625 16.380859 C 4.9771107 15.750315 4.9256005 14.934043 4.4804688 13.810547 C 4.2534619 13.238172 4.2283219 12.796784 4.4042969 12.498047 C 4.6011684 12.162949 5.043349 12.014805 5.2832031 11.964844 C 6.6989728 12.753995 8.5688378 13.246568 10.660156 13.306641 L 10.244141 11.890625 C 6.7600506 11.66231 3.9570313 10.048655 3.9570312 8.1601562 C 3.9570709 6.122011 7.2207433 4.3984375 11.083984 4.3984375 C 14.947265 4.3984375 18.210938 6.1220506 18.210938 8.1601562 C 18.210938 8.6537823 18.015329 9.1296014 17.669922 9.5664062 L 19.074219 9.9785156 C 19.41574 9.4143886 19.611328 8.8041025 19.611328 8.1601562 C 19.611328 5.2669583 15.864968 3 11.083984 3 z M 11.558594 9.2480469 C 11.435158 9.2480469 11.314857 9.2965901 11.224609 9.3867188 C 11.101847 9.5088465 11.054347 9.6879295 11.103516 9.8535156 L 13.691406 18.660156 C 13.74454 18.84307 13.903778 18.977507 14.09375 18.998047 C 14.111712 18.999911 14.129394 19 14.146484 19 C 14.317344 19 14.476009 18.907488 14.560547 18.755859 L 16.705078 14.867188 L 20.591797 12.722656 C 20.759326 12.630585 20.85496 12.44719 20.833984 12.257812 C 20.813603 12.067999 20.679603 11.909831 20.496094 11.855469 L 11.691406 9.265625 C 11.647194 9.2522227 11.603361 9.2480469 11.558594 9.2480469 z "
     />
</svg>
